!!!!SEGMENT: pl-kk--kk-i-6--052_gorczycki-grzegorz-gerwazy--eia-mater-fons-amoris.krn
!!!cenid: 16xx:1048
!!!COM: Gorczycki, Grzegorz Gerwazy
!!!COM-rismID: pe30009207
!!!CDT: ~1666-1734/04/30
!!!CNT: Polish
!!!OTL: Eia Mater fons amoris
!!!PDT:
!!!AGN:
!!!SMS-siglum: PL-Kk
!!!SMS-shelfmark: Kk.I.6
!!!SMS-shelfwork: 052 W
!!!SMS-variant:
!!!SMS-altvar:
!!!NIFC-rismSourceID: 1001135513
!!!NIFC-rismChildID: 1001136557
!!!NIFC-islandoraID: pl-kk:1634
!!!URL-pdf-islandora: https://repozytorium.nifc.pl/islandora/object/pl-kk%3A1634/datastream/PDF/view
!!!URL-scan: https://polish.musicsources.pl/pl/lokalizacje/galeria/rekopisy/6133 @EN{Scan on Polish Music Sources Website} @PL{Skany w portalu Dziedzictwo Muzyki Polskiej w otwartym dostępie}
!!!ONB-nifc: UWAGA: C (skan 0086, s. 168-169), T (skan 0197, s. 198-199), B (skan 0310, s. 202-203) Następny utwór: Deo gratias
!!!AIN: 1 empty 1 tenor 1 vox
!!!key:
**kern	**text	**text	**text	**text	**text	**text	**kern	**text	**text	**text	**text	**text	**text	**kern	**text	**text	**text	**text	**text	**text
*part3	*part3	*part3	*part3	*part3	*part3	*part3	*part2	*part2	*part2	*part2	*part2	*part2	*part2	*part1	*part1	*part1	*part1	*part1	*part1	*part1
*staff3	*staff3	*staff3	*staff3	*staff3	*staff3	*staff3	*staff2	*staff2	*staff2	*staff2	*staff2	*staff2	*staff2	*staff1	*staff1	*staff1	*staff1	*staff1	*staff1	*staff1
*	*verse1	*verse2	*verse3	*verse4	*verse5	*verse6	*	*verse1	*verse2	*verse3	*verse4	*verse5	*verse6	*	*verse1	*verse2	*verse3	*verse4	*verse5	*verse6
*Iempty	*	*	*	*	*	*	*Itenor	*	*	*	*	*	*	*Ivox	*	*	*	*	*	*
*I"Baſsus.	*	*	*	*	*	*	*I"Tenor.	*	*	*	*	*	*	*I"Canto.	*	*	*	*	*	*
*I'B	*	*	*	*	*	*	*I'T	*	*	*	*	*	*	*I'S	*	*	*	*	*	*
*clefF4	*	*	*	*	*	*	*clefC4	*	*	*	*	*	*	*clefC1	*	*	*	*	*	*
*k[b-]	*	*	*	*	*	*	*k[b-]	*	*	*	*	*	*	*k[b-]	*	*	*	*	*	*
*d:	*	*	*	*	*	*	*d:	*	*	*	*	*	*	*d:	*	*	*	*	*	*
*M3/2	*	*	*	*	*	*	*M3/2	*	*	*	*	*	*	*M3/2	*	*	*	*	*	*
=1-	=1-	=1-	=1-	=1-	=1-	=1-	=1-	=1-	=1-	=1-	=1-	=1-	=1-	=1-	=1-	=1-	=1-	=1-	=1-	=1-
1F	E-	Fac	San-	Tu-	Fac	Ju-	1A	E-	Fac	San-	Tu-	Fac	Ju-	1f	E-	Fac	San-	Tu-	Fac	Ju-
*	*	*	*	*	*	*	*2\right	*	*	*	*	*	*	*	*	*	*	*	*	*
!LO:TX:t=P:problem=kreska pseudotaktowa	!	!	!	!	!	!	!LO:TX:t=P:problem=2\right&colon; global	!	!	!	!	!	!	!LO:TX:t=P:problem=kreska pseudotaktowa	!	!	!	!	!	!
2C/	-ja	ut	-cta	-i	me	-xta	2c\	-ja	ut	-cta	-i	me	-xta	2g/	-ja	ut	-cta	-i	me	-xta
=2-	=2-	=2-	=2-	=2-	=2-	=2-	=2-	=2-	=2-	=2-	=2-	=2-	=2-	=2-	=2-	=2-	=2-	=2-	=2-	=2-
1F	Ma-	ar-	Ma-	Na-	ve-	Cru-	1c	Ma-	ar-	Ma-	Na-	ve-	Cru-	1a	Ma-	ar-	Ma-	Na-	ve-	Cru-
*2\right	*	*	*	*	*	*	*	*	*	*	*	*	*	*2\right	*	*	*	*	*	*
!LO:TX:t=P:problem=kreska pseudotaktowa	!	!	!	!	!	!	!	!	!	!	!	!	!	!LO:TX:t=P:problem=kreska pseudotaktowa	!	!	!	!	!	!
2F\	-ter	-de-	-ter	-ti	-rē	-cem.	2c\	-ter	-de-	-ter	-ti	-rē	-cem.	2a\	-ter	-de-	-ter	-ti	-rē	-cem
=3-	=3-	=3-	=3-	=3-	=3-	=3-	=3-	=3-	=3-	=3-	=3-	=3-	=3-	=3-	=3-	=3-	=3-	=3-	=3-	=3-
1D	fons	-at	i-	.	te-	.	1d	fons	-at	i-	.	te-	.	1b-	fons	-at	i-	.	te-	.
!LO:TX:t=P:problem=kreska pseudotaktowa	!	!	!	!	!	!	!	!	!	!	!	!	!	!	!	!	!	!	!	!
2E\	a-	.	-stud	.	-cum	.	2d\	a-	cor	-stud	.	-cum	.	2b-\	a-	.	-stud	.	-cum	.
=4-	=4-	=4-	=4-	=4-	=4-	=4-	=4-	=4-	=4-	=4-	=4-	=4-	=4-	=4-	=4-	=4-	=4-	=4-	=4-	=4-
!	!	!	!	!	!	!	!	!	!	!	!	!	!	!LO:TX:t=P:problem=kreska pseudotaktowa	!	!	!	!	!	!
1.F	-mo-	.	a-	.	fle-	.	1.c	-mo-	me-	a-	.	fle-	.	1.a	-mo-	.	a-	.	fle-	.
=5-	=5-	=5-	=5-	=5-	=5-	=5-	=5-	=5-	=5-	=5-	=5-	=5-	=5-	=5-	=5-	=5-	=5-	=5-	=5-	=5-
!	!	!	!	!	!	!	!LO:TX:t=P:problem=kreska pseudotaktowa	!	!	!	!	!	!	!LO:TX:t=P:problem=kreska pseudotaktowa	!	!	!	!	!	!
1.F	-ris	.	-gas	.	-re	.	1.c	-ris	-um	-gas	.	-re	.	1.a	-ris	.	-gas	.	-re	.
=6-	=6-	=6-	=6-	=6-	=6-	=6-	=6-	=6-	=6-	=6-	=6-	=6-	=6-	=6-	=6-	=6-	=6-	=6-	=6-	=6-
1FF	me	.	Cru-	.	Cru-	.	1c	me	.	Cru-	.	Cru-	.	1cc	me	.	Cru-	.	Cru-	.
!LO:TX:t=P:problem=kreska pseudotaktowa	!	!	!	!	!	!	!	!	!	!	!	!	!	!LO:TX:t=P:problem=kreska pseudotaktowa	!	!	!	!	!	!
2FF/	ſen-	.	-ci-	.	-ci-	.	2A/	ſen-	.	-ci-	.	-ci-	.	2cc\	ſen-	.	-ci-	.	-ci-	.
=7-	=7-	=7-	=7-	=7-	=7-	=7-	=7-	=7-	=7-	=7-	=7-	=7-	=7-	=7-	=7-	=7-	=7-	=7-	=7-	=7-
1GG	-ti-	.	-fi-	.	-fi-	.	1d	-ti-	.	-fi-	.	-fi-	.	1b-	-ti-	.	-fi-	.	-fi-	.
!LO:TX:t=P:problem=kreska pseudotaktowa	!	!	!	!	!	!	!	!	!	!	!	!	!	!LO:TX:t=P:problem=kreska pseudotaktowa	!	!	!	!	!	!
2GG/	-re	.	-xi	.	-xo	.	2B-\	-re	.	-xi	.	-xo	.	2b-\	-re	.	-xi	.	-xo	.
=8-	=8-	=8-	=8-	=8-	=8-	=8-	=8-	=8-	=8-	=8-	=8-	=8-	=8-	=8-	=8-	=8-	=8-	=8-	=8-	=8-
1AA	vim	.	fi-	.	con-	.	1c	vim	.	fi-	.	con-	.	1a	vim	.	fi-	.	con-	.
*custos:C	*	*	*	*	*	*	*	*	*	*	*	*	*	*	*	*	*	*	*	*
!LO:TX:t=P:problem=kreska pseudotaktowa	!	!	!	!	!	!	!	!	!	!	!	!	!	!	!	!	!	!	!	!
2BB-/	do-	.	-ge	.	-do-	.	2F/	do-	.	-ge	.	-do-	.	2a\	do-	.	-ge_[[plagas]]	.	-do[[lere]]-	.
!LO:PB:g=original	!	!	!	!	!	!	!LO:PB:g=original	!	!	!	!	!	!	!LO:PB:g=original	!	!	!	!	!	!
=9-	=9-	=9-	=9-	=9-	=9-	=9-	=9-	=9-	=9-	=9-	=9-	=9-	=9-	=9-	=9-	=9-	=9-	=9-	=9-	=9-
!	!	!	!	!	!	!	!	!	!	!	!	!	!	!LO:TX:t=P:problem=kreska pseudotaktowa	!	!	!	!	!	!
1.C	-lo-	.	pla-	.	-le-	.	1.c	-lo-	.	pla-	.	-le-	.	1.g	-lo-	.	pla-	.	-le-	.
=10-	=10-	=10-	=10-	=10-	=10-	=10-	=10-	=10-	=10-	=10-	=10-	=10-	=10-	=10-	=10-	=10-	=10-	=10-	=10-	=10-
!LO:TX:t=P:problem=kreska pseudotaktowa	!	!	!	!	!	!	!LO:TX:t=P:problem=kreska pseudotaktowa	!	!	!	!	!	!	!LO:TX:t=P:problem=kreska pseudotaktowa	!	!	!	!	!	!
1.C	-ris	.	-gas	.	-re	.	1.c	-ris	.	-gas	.	-re	.	1.g	-ris	.	-gas	.	-re	.
=11-	=11-	=11-	=11-	=11-	=11-	=11-	=11-	=11-	=11-	=11-	=11-	=11-	=11-	=11-	=11-	=11-	=11-	=11-	=11-	=11-
1F	fac,	.	cor-	.	do-	.	1A	fac	.	cor-	.	do-	.	1f	fac,	.	cor-	.	do-	.
!	!	!	!	!	!	!	!	!	!	!	!	!	!	!LO:TX:t=P:problem=kreska pseudotaktowa	!	!	!	!	!	!
2E\	ut	.	-di	.	-nec	.	2c\	me	.	-di	.	-nec	.	2g/	ut	.	-di	.	-nec	.
=12-	=12-	=12-	=12-	=12-	=12-	=12-	=12-	=12-	=12-	=12-	=12-	=12-	=12-	=12-	=12-	=12-	=12-	=12-	=12-	=12-
1F	te-	.	me-	.	e-	.	1c	te-	.	me-	.	e-	.	1a	Te-	.	me-	.	e-	.
2BB-/	-cum	.	-o	.	-go	.	2d\	-cum	.	-o	.	-go	.	2b-\	-cum	.	-o	.	-go	.
=13-	=13-	=13-	=13-	=13-	=13-	=13-	=13-	=13-	=13-	=13-	=13-	=13-	=13-	=13-	=13-	=13-	=13-	=13-	=13-	=13-
1C	lu-	.	va-	.	vi-	.	1c	plan-	.	va-	.	vi-	.	1g	lu-	.	va-	.	vi-	.
2C/	-ge-	.	-li-	.	-xe-	.	2c\	-ga-	.	-li-	.	-xe-	.	2g/	-ge-	.	-li-	.	-xe-	.
=14-	=14-	=14-	=14-	=14-	=14-	=14-	=14-	=14-	=14-	=14-	=14-	=14-	=14-	=14-	=14-	=14-	=14-	=14-	=14-	=14-
1.FFl;	-am.	.	-dĕ.	.	-ro.	.	1.cl;	-re	.	-de	.	-ro.	.	1.al	-am.	.	-dĕ.	.	-ro.	.
!LO:PB:g=original	!	!	!	!	!	!	!LO:PB:g=original	!	!	!	!	!	!	!LO:PB:g=original	!	!	!	!	!	!
=15||	=15||	=15||	=15||	=15||	=15||	=15||	=15||	=15||	=15||	=15||	=15||	=15||	=15||	=15||	=15||	=15||	=15||	=15||	=15||	=15||
1D	.	Fac	.	Tu-	.	Ju-	1A	.	Fac	.	Tu-	.	Ju-	1f	.	Fac	.	Tu-	.	Ju-
!LO:TX:t=P:problem=kreska pseudotaktowa	!	!	!	!	!	!	!	!	!	!	!	!	!	!LO:TX:t=P:problem=kreska pseudotaktowa	!	!	!	!	!	!
2C/	.	ut	.	-i	.	-xta	2c\	.	ut	.	-i	.	-xta	2g/	.	ut	.	-i	.	-xta
=16-	=16-	=16-	=16-	=16-	=16-	=16-	=16-	=16-	=16-	=16-	=16-	=16-	=16-	=16-	=16-	=16-	=16-	=16-	=16-	=16-
2.F\	.	ar-	.	Na-	.	Cru-	2.c\	.	ar-	.	Na-	.	Cru-	2.a\	.	ar-	.	Na-	.	Cru-
4E\	.	-de-	.	-ti	.	-cem	4c\	.	-de-	.	-ti	.	-cem	4g/	.	-de-	.	-ti	.	-cem
!LO:TX:t=P:problem=kreska pseudotaktowa	!	!	!	!	!	!	!LO:TX:t=P:problem=kreska pseudotaktowa	!	!	!	!	!	!	!	!	!	!	!	!	!
2D/	.	-at	.	vul-	.	te-	2d\	.	-at	.	vul-	.	te-	(4f/	.	-at	.	vul-	.	te-
!	!	!	!	!	!	!	!	!	!	!	!	!	!	!LO:TX:t=P:problem=kreska pseudotaktowa	!	!	!	!	!	!
.	.	.	.	.	.	.	.	.	.	.	.	.	.	4g/)	.	.	.	.	.	.
=17-	=17-	=17-	=17-	=17-	=17-	=17-	=17-	=17-	=17-	=17-	=17-	=17-	=17-	=17-	=17-	=17-	=17-	=17-	=17-	=17-
2C/	.	cor	.	-ne-	.	-cum	2A/	.	cor	.	-ne-	.	-cum	2a\	.	cor	.	-ne-	.	-cum
!LO:TX:t=P:problem=kreska pseudotaktowa	!	!	!	!	!	!	!	!	!	!	!	!	!	!	!	!	!	!	!	!
1BB-X	.	me-	.	-ra-	.	ſta-	1d	.	me-	.	-ra-	.	ſta-	(<2a\	.	me-	.	-ra-	.	ſta-
!	!	!	!	!	!	!	!	!	!	!	!	!	!	!LO:TX:t=P:problem=kreska pseudotaktowa	!	!	!	!	!	!
.	.	.	.	.	.	.	.	.	.	.	.	.	.	2g/)	.	.	.	.	.	.
=18-	=18-	=18-	=18-	=18-	=18-	=18-	=18-	=18-	=18-	=18-	=18-	=18-	=18-	=18-	=18-	=18-	=18-	=18-	=18-	=18-
!LO:TX:t=P:problem=kreska pseudotaktowa	!	!	!	!	!	!	!LO:TX:t=P:global:problem=oddech jako rozdzielacz słów	!	!	!	!	!	!	!	!	!	!	!	!	!
1AA.	.	-um	.	-ti	.	-re	2c#X,<\	.	-um,	.	-ti,	.	-re,	1.a	.	-um	.	-ti	.	-re
.	.	.	.	.	.	.	2e\	.	in	.	tam	.	Te	.	.	.	.	.	.	.
.	.	.	.	.	.	.	2d\	.	a-	.	di-	.	li-	.	.	.	.	.	.	.
=19-	=19-	=19-	=19-	=19-	=19-	=19-	=19-	=19-	=19-	=19-	=19-	=19-	=19-	=19-	=19-	=19-	=19-	=19-	=19-	=19-
2r	.	.	.	.	.	.	1cn	.	-man-	.	-gna-	.	-ben-	0.r	.	.	.	.	.	.
2A\	.	in	.	tam	.	Te	.	.	.	.	.	.	.	.	.	.	.	.	.	.
!LO:TX:t=P:problem=kreska pseudotaktowa	!	!	!	!	!	!	!LO:N:acc=#	!	!	!	!	!	!	!	!	!	!	!	!	!
2G\	.	a-	.	di-	.	li-	2Bn\	.	-do	.	-ti	.	-ter	.	.	.	.	.	.	.
=20-	=20-	=20-	=20-	=20-	=20-	=20-	=20-	=20-	=20-	=20-	=20-	=20-	=20-	=20-	=20-	=20-	=20-	=20-	=20-	=20-
1F	.	-man-	.	-gna-	.	-ben-	1.A	.	Chri-	.	pro	.	so-	.	.	.	.	.	.	.
!LO:TX:t=P:problem=kreska pseudotaktowa	!	!	!	!	!	!	!	!	!	!	!	!	!	!	!	!	!	!	!	!
2E\	.	-do	.	-ti	.	-ter	.	.	.	.	.	.	.	.	.	.	.	.	.	.
=21-	=21-	=21-	=21-	=21-	=21-	=21-	=21-	=21-	=21-	=21-	=21-	=21-	=21-	=21-	=21-	=21-	=21-	=21-	=21-	=21-
!LO:TX:t=P:global:problem=oddech jako rozdzielacz słów	!	!	!	!	!	!	!	!	!	!	!	!	!	!	!	!	!	!	!	!
1D,<	.	Chri-	.	pro	.	so-	1.A	.	-stum	.	me	.	-ci-	2r	.	.	.	.	.	.
.	.	.	.	.	.	.	.	.	.	.	.	.	.	2dd\	.	in	.	tam	.	Te
!LO:TX:t=P:problem=kreska pseudotaktowa	!	!	!	!	!	!	!	!	!	!	!	!	!	!LO:TX:t=P:problem=kreska pseudotaktowa	!	!	!	!	!	!
2D/	.	-stum	.	me	.	-ci-	.	.	.	.	.	.	.	2cc\	.	a-	.	di-	.	li-
=22-	=22-	=22-	=22-	=22-	=22-	=22-	=22-	=22-	=22-	=22-	=22-	=22-	=22-	=22-	=22-	=22-	=22-	=22-	=22-	=22-
[1.E	.	De-	.	pa-	.	-a-	1G#X	.	Chri-	.	pro	.	-a-	2.bn\	.	-man-	.	-gna-	.	-ben-
.	.	.	.	.	.	.	.	.	.	.	.	.	.	4b\	.	-do	.	-ti	.	-ter
!	!	!	!	!	!	!	!LO:PB:g=original	!	!	!	!	!	!	!LO:TX:t=P:problem=kreska pseudotaktowa	!	!	!	!	!	!
.	.	.	.	.	.	.	1A\	.	-stum	.	me	.	.	2cc\	.	Chri-	.	pro	.	so-
=23-	=23-	=23-	=23-	=23-	=23-	=23-	=23-	=23-	=23-	=23-	=23-	=23-	=23-	=23-	=23-	=23-	=23-	=23-	=23-	=23-
1.E]	.	.	.	.	.	.	.	.	.	.	.	.	.	2cc\	.	-stum	.	me	.	-ci-
.	.	.	.	.	.	.	(2A/	.	De-	.	pa-	.	.	1bn	.	De-	.	pa-	.	-a-
.	.	.	.	.	.	.	2G#X/)	.	.	.	.	.	.	.	.	.	.	.	.	.
!LO:PB:g=original	!	!	!	!	!	!	!	!	!	!	!	!	!	!	!	!	!	!	!	!
=24-	=24-	=24-	=24-	=24-	=24-	=24-	=24-	=24-	=24-	=24-	=24-	=24-	=24-	=24-	=24-	=24-	=24-	=24-	=24-	=24-
!	!	!	!	!	!	!	!LO:TX:t=P:problem=kreska pseudotaktowa	!	!	!	!	!	!	!LO:TX:t=P:problem=♯ above	!	!	!	!	!	!
1AA	.	-um	.	-ti	.	-ro	1.A	.	-um	.	-ti	.	-re	1cc#X	.	-um	.	-ti	.	-re
!LO:TX:t=P:problem=kreska pseudotaktowa	!	!	!	!	!	!	!	!	!	!	!	!	!	!	!	!	!	!	!	!
2F\	.	ut	.	poe-	.	in	.	.	.	.	.	.	.	2r	.	.	.	.	.	.
!	!	!	!	!	!	!	!	!	!	!	!	!	!	!LO:PB:g=original	!	!	!	!	!	!
=25-	=25-	=25-	=25-	=25-	=25-	=25-	=25-	=25-	=25-	=25-	=25-	=25-	=25-	=25-	=25-	=25-	=25-	=25-	=25-	=25-
!	!	!	!	!	!	!	!	!	!	!	!	!	!	!LO:TX:a:t=2	!	!	!	!	!	!
!	!	!	!	!	!	!	!	!	!	!	!	!	!	!LO:TX:t=P:problem=kreska pseudotaktowa	!	!	!	!	!	!
2E\	.	ſi-	.	.	.	plan-	2r	.	.	.	.	.	.	0.r	.	.	.	.	.	.
2C/	.	-bi	.	-nas	.	-ctu	2r	.	.	.	.	.	.	.	.	.	.	.	.	.
!LO:TX:t=P:problem=kreska pseudotaktowa	!	!	!	!	!	!	!	!	!	!	!	!	!	!	!	!	!	!	!	!
2E\	.	com-	.	poe-	.	in	2c\	.	ut	.	poe-	.	in	.	.	.	.	.	.	.
=26-	=26-	=26-	=26-	=26-	=26-	=26-	=26-	=26-	=26-	=26-	=26-	=26-	=26-	=26-	=26-	=26-	=26-	=26-	=26-	=26-
2.F\	.	-pla-	.	.	.	plan-	2A/	.	ſi-	.	.	.	plan-	.	.	.	.	.	.	.
.	.	.	.	.	.	.	2F/	.	-bi	.	-nas	.	-ctu	.	.	.	.	.	.	.
4G\	.	.	.	.	.	.	.	.	.	.	.	.	.	.	.	.	.	.	.	.
4A\	.	.	.	.	.	.	2.c\	.	com-	.	me-	.	de-	.	.	.	.	.	.	.
!LO:TX:t=P:problem=kreska pseudotaktowa	!	!	!	!	!	!	!	!	!	!	!	!	!	!	!	!	!	!	!	!
4B-\	.	.	.	.	.	.	.	.	.	.	.	.	.	.	.	.	.	.	.	.
=27-	=27-	=27-	=27-	=27-	=27-	=27-	=27-	=27-	=27-	=27-	=27-	=27-	=27-	=27-	=27-	=27-	=27-	=27-	=27-	=27-
2c\	.	.	.	.	.	.	.	.	.	.	.	.	.	2r	.	.	.	.	.	.
.	.	.	.	.	.	.	4d\	.	.	.	.	.	.	.	.	.	.	.	.	.
!LO:TX:t=P:problem=kreska pseudotaktowa	!	!	!	!	!	!	!	!	!	!	!	!	!	!	!	!	!	!	!	!
1C	.	.	.	-nas	.	-ctu	4e\	.	.	.	.	.	.	2r	.	.	.	.	.	.
.	.	.	.	.	.	.	4d\	.	.	.	.	.	.	.	.	.	.	.	.	.
!	!	!	!	!	!	!	!	!	!	!	!	!	!	!LO:TX:t=P:problem=kreska pseudotaktowa	!	!	!	!	!	!
.	.	.	.	.	.	.	4c\	.	.	.	.	.	.	2ccny\	.	ut	.	poe-	.	in
.	.	.	.	.	.	.	4B-X\	.	.	.	.	.	.	.	.	.	.	.	.	.
=28-	=28-	=28-	=28-	=28-	=28-	=28-	=28-	=28-	=28-	=28-	=28-	=28-	=28-	=28-	=28-	=28-	=28-	=28-	=28-	=28-
2.D\	.	.	.	me-	.	de-	2A/	.	.	.	.	.	.	2a\	.	ſi-	.	.	.	plan-
.	.	.	.	.	.	.	1d	.	.	.	-cum	.	.	2f/	.	-bi	.	-nas	.	-ctu
4E\	.	.	.	.	.	.	.	.	.	.	.	.	.	.	.	.	.	.	.	.
!	!	!	!	!	!	!	!	!	!	!	!	!	!	!LO:TX:t=P:problem=kreska pseudotaktowa	!	!	!	!	!	!
4F\	.	.	.	.	.	.	.	.	.	.	.	.	.	2a\	.	com-	.	me-	.	de-
4G\	.	.	.	.	.	.	.	.	.	.	.	.	.	.	.	.	.	.	.	.
=29-	=29-	=29-	=29-	=29-	=29-	=29-	=29-	=29-	=29-	=29-	=29-	=29-	=29-	=29-	=29-	=29-	=29-	=29-	=29-	=29-
*	*	*	*	*	*	*	*col	*	*	*	*	*	*	*col	*	*	*	*	*	*
1A	.	.	.	.	.	.	1c#X	.	.	.	me-	.	.	1a	.	-pla-	.	-cum	.	-ſi-
1G\	.	.	.	-cum	.	.	1d\	.	.	.	-cum	.	.	1b-X\	.	.	.	.	.	.
*	*	*	*	*	*	*	*Xcol	*	*	*	*	*	*	*Xcol	*	*	*	*	*	*
=30-	=30-	=30-	=30-	=30-	=30-	=30-	=30-	=30-	=30-	=30-	=30-	=30-	=30-	=30-	=30-	=30-	=30-	=30-	=30-	=30-
2A\	.	.	.	di-	.	-ſi-	2d\	.	-pla-	.	di-	.	-ſi-	2.a\	.	.	.	di-	.	.
2AA/	.	-ce-	.	-vi-	.	-de-	2c#X\	.	-ce-	.	-vi-	.	-de-	.	.	.	.	.	.	.
.	.	.	.	.	.	.	.	.	.	.	.	.	.	4a\	.	-ce-	.	-vi-	.	-de-
=31-	=31-	=31-	=31-	=31-	=31-	=31-	=31-	=31-	=31-	=31-	=31-	=31-	=31-	=31-	=31-	=31-	=31-	=31-	=31-	=31-
1.Dl;	.	-am.	.	-de	.	-ro	1.dl;	.	-am.	.	-de	.	-ro.	1.al;	.	-am.	.	-de.	.	-ro.
==	==	==	==	==	==	==	==	==	==	==	==	==	==	==	==	==	==	==	==	==
*-	*-	*-	*-	*-	*-	*-	*-	*-	*-	*-	*-	*-	*-	*-	*-	*-	*-	*-	*-	*-
!!!system-decoration: [(s1,s2,s3)]
!!!RDF**kern: < = below
!!!RDF**kern: l = terminal long
!!!ENC: Andrzej Kubiczek
!!!END: 2021-10-23
!!!ENC: Andrzej Kubiczek
!!!END: 2021-10-28
!!!YEC: Copyright 2022 Narodowy Instytut Fryderyka Chopina (https://polishscores.org)
!!!YEM: License CC-BY-4.0 (https://creativecommons.org/licenses/by/4.0)
